!!!ONB: MCCC : IJH0456_04 : Extracted Monophonic Melody
!!!COM: Haydn, Joseph
!!!OPR: String Quartet in F minor
!!!OMV: 4
!!!SCT: Hob.III:35 ; Op.20 No.5
!!!ODT: 1772///
**kern
*thru
*k[b-e-a-d-]
*f:
*clefG
*M4/4
=6
1ff
=7
2cc
2aa-
=8
1b
=9
2.cc
8dd
8ee-
=10
4ff
4gg
2aa-[
=11
4aa-]
8gg
8ff
4ee-
4dd
=12
2cc
2b-
=13
4a-
4g
2f
=14
4r
4b-
4b-
4b-
=15
4b-
8a-
8g
4a-
4r
=16
1r
=17
4r
4f
4f
4f
=18
4f
8e
8d
4c
4r
=19
1r
=20
2r
2g
=21
4cc
8dd
8ee
4ff
8gg
8aa-
=22
4bb-
4bb-
4bb-
4bb-
=23
4bb-
8aa
8gg
4aa
4ff
=24
4r
4aa-
4aa-
4aa-
=25
4aa-
8gg
8ff
4gg
4ee-
=26
4r
4aa-
4aa-
4aa-
=27
4aa-
8gg
8ff
4gg
4ee-
=28
4ff
4bb-
4bb-
4bb-
=29
4bb-
8aa-
8gg
4aa-
4ff
=30
4gg
4ccc
4ccc
4ccc
=31
4ccc
8bb-
8aa-
2bb-[
=32
4bb-]
8ccc
8bb-
2aa-[
=33
4aa-]
8bb-
8aa-
2gg[
=34
4gg]
8aa-
8gg
2ff[
=35
4ff]
4b-
4ee-
8dd-
8ee-
=36
4cc
8b-
8cc
4a-
8b-
8cc
=37
4b-
4d-
4d-
4d-
=38
4d-
8c
8B-
4c
4r
=39
1r
=40
1r
=41
4r
4g-
4g-
4g-
=42
4g-
8f
8e-
4f
4r
=43
4r
4a-
4a-
4a-
=44
4a-
8g
8f
4g
4r
=45
1gg
=46
2cc
2aa-
=47
2b
2ff
=48
2ee
2gg
=49
2cc
2ee-
=50
2dd
2ff
=51
2b-
2dd-
=52
1cc[
=53
4cc]
4ee-
4ee-
4ee-
=54
4ee-
8dd-
8cc
4dd-
4r
=55
1r
=56
2r
2ccc
=57
2.ff
8gg
8aa
=58
1bb-
=59
2.ee-
8ff
8gg-
=60
2aa-
4ff
4dd-
=61
2dd-
2r
=62
1r
=63
1r
=64
4r
4aa-
4cc-
4cc-
=65
4c-
8b-
8a-
4b-
4r
=66
1r
=67
1r
=68
1dd-
=69
2a-
2ff
=70
1g
=71
2a-
2r
=72
1r
=73
1r
=74
1ee-
=75
2b-
2gg-
=76
1a
=77
4b-
4B-
4B-
4c
=78
4d-
8c
8d-
4B-
8A-
8B-
=79
2G
2c
=80
1ff
=81
2cc
2aa-
=82
1b
=83
2cc
2r
=84
1r
=85
4r
4cc
4cc
4dd
=86
4ee-
8dd
8ee-
4cc
8dd
8ee-
=87
4ff
8ee-
8dd
4gg
4ff
=88
4ee-
8cc
8dd
4ee
8dd
8ee
=89
2ff
2r
=90
1r
=91
1ccc
=92
2ff
2ddd-
=93
1ee
=94
2.ff
4cc
=95
1dd-[
=96
1dd-]
=97
1cc[
=98
1cc]
=99
1b-[
=100
1b-]
=101
1a-
=102
4g
4b-
4b-
4b-
=103
4b-
8a-
8g
4a-
4ff
=104
1gg
=105
2cc
2aa-
=106
1b
=107
1cc[
=108
4cc]
4dd
4ee
4ff
=109
4gg
4aa-
4bb-
4ccc
=110
1ddd-
=111
1r
=112
1ff
=113
2cc
2aa-
=114
1b
=115
4cc
8ee
8ff
4gg
8ff
8gg
=116
4aa-
8gg
8aa-
4ff
8gg
8aa-
=117
4bb-
8ccc
8bb-
4aa-
4ff
=118
2a-
2g[
=119
2g]
2r
=120
1ccc
=121
2ff
2ddd-
=122
1ee
=123
1ff
=124
4r
4gg
4gg
4gg
=125
4gg
8ff
8ee
2ff[
=126
4ff]
4f
4ff
4ff
=127
4ff
8ee-
8dd-
2ee-[
=128
4ee-]
4e-
4ee-
4ee-
=129
4ee-
8dd-
8cc
2dd-[
=130
4dd-]
4d-
4dd-
4dd-
=131
4dd-
8cc
8b-
4cc
4b-
=132
4a-
4cc
4b-
4a-
=133
2g
2r
=134
1ff
=135
2cc
2aa-
=136
1b
=137
1cc
=138
1dd
=139
1dd-
=140
1cc
=141
1b-[
=142
4b-]
4cc
4a-
4f
=143
1B
=144
2c
2cc[
=145
2cc]
2f
=146
2dd-
2e
=147
2.cc
4b-
=148
4a-
4g
4f
4ff[
=149
4ff]
4ee-
4dd-
4cc
=150
4b-
2bb-
4aa-
=151
4gg
4ff
4ee
4gg
=152
2ccc
2ff
=153
2ddd-
2ee
=154
2ccc
2ee-
=155
2bb
2dd
=156
2bb-
2dd-
=157
2bb-
2aa-
=158
1gg
=159
2ff
2r
=160
4r
4b-
4b-
4b-
=161
4b-
8a-
8g
4a-
4f
=162
1ee
=163
2.ff
4aa-
=164
4gg
4bb-
4r
4ee
=165
2ff
2r
=166
4r
4b-
4b-
4b-
=167
4b-
8a-
8g
4a-
4f
=168
1ee
=169
2.ff
4aa-
=170
1b
=171
1cc
=172
1b-[
=173
4b-]
4g
4g
4a-
=174
1b-[
=175
4b-]
4B-
4B-
4c
=176
2d-
2r
=177
1r
=178
1cc
=179
2f
2dd-
=180
1e
=181
2f
2r
=182
2ee
2r
=183
2ff
2r
==
*-
